!!!COM: Palestrina, Giovanni Perluigi da
!!!OPR: Missa Sacerdotes Domini
!!!OMD: Sanctus
!!!OTL: Pleni
**kern	**kern	**kern
*Ibarit	*Itenor	*Itenor
!Baritone	!Tenor 2	!Tenor 1
*clefF4	*clefGv2	*clefGv2
*k[]	*k[]	*k[]
*G:mix	*G:mix	*G:mix
*M4/2	*M4/2	*M4/2
=34	=34	=34
1c	0r	0r
2c	.	.
2B	.	.
=35	=35	=35
1A	0r	0r
2.G	.	.
4A	.	.
=36	=36	=36
4B	1d	0r
4c	.	.
1B	.	.
.	2d	.
[2A	2c	.
=37	=37	=37
2A]	1B	0r
2G	.	.
2.c	2.A	.
4B	4B	.
=38	=38	=38
1A	4c	1e
.	4d	.
.	1c	.
1G	.	2e
.	[2B	2d
=39	=39	=39
2E	2B]	1c
2F	2A	.
2.G	2.d	2.B
4A	4c	4c
=40	=40	=40
4B	1B	4d
4c	.	4e
4d	.	1d
4e	.	.
2f	1A	.
2e	.	[2c
=41	=41	=41
1d	2F	2c]
.	2G	2B
2.c	2.A	2.e
4d	4B	4d
=42	=42	=42
4e	4c	1c
4f	4d	.
1e	4e	.
.	4f	.
.	2g	1B
[2d	2f	.
=43	=43	=43
2d]	1e	2G
2c#	.	2A
1d	2.d	2.B
.	4e	4c
=44	=44	=44
1r	4f	4d
.	4g	4e
.	1f	4f
.	.	4g
2r	.	2a
2G	[2e	2g
=45	=45	=45
2A	2e]	1f
2B	2d	.
2.c	1e	2.e
8B	.	4f
8A	.	.
=46	=46	=46
2G	1r	4g
.	.	4a
1E	.	1g
.	2r	.
2F	2A	[2f
=47	=47	=47
2G	2B	2f]
2A	2c	2e
2.D	2.d	1f
4E	8c	.
.	8B	.
=48	=48	=48
4F	2A	1r
4G	.	.
4A	1F	.
4B	.	.
4c	.	2r
4d	.	.
[2e	2G	2B
=49	=49	=49
2e]	2A	2c
2d	2B	2d
4c	2.E	2.e
4B	.	.
2e	.	.
.	4F	8d
.	.	8c
=50	=50	=50
1d	4G	2B
.	4A	.
.	4B	1G
.	4c	.
2r	4d	.
.	4e	.
2c	[2f	2A
=51	=51	=51
2d	2f]	2B
2e	2e	2c
2.f	4d	2.F
.	4c	.
.	2f	.
8e	.	4G
8d	.	.
=52	=52	=52
1.c	1e	4A
.	.	4B
.	.	4c
.	.	4d
.	2r	4e
.	.	4f
2B	2d	[2g
=53	=53	=53
2c	2e	2g]
2A	2f	2f
1G	2.g	4e
.	.	4d
.	.	2g
.	8f	.
.	8e	.
=54	=54	=54
2r	1.d	1f
2F	.	.
2G	.	2r
2A	2c	2e
=55	=55	=55
2D	2d	2f
2E	2B	2g
4F	1A	2.a
4G	.	.
4A	.	.
4B	.	8g
.	.	8f
=56	=56	=56
4c	2r	1.e
4d	.	.
2e	2G	.
1f	2A	.
.	2B	2d
=57	=57	=57
1e	2E	2e
.	2F	2c
2.d	4G	1B
.	4A	.
.	4B	.
4e	4c	.
=58	=58	=58
4f	4d	2r
4g	4e	.
1f	2f	2A
.	1g	2B
2e	.	2c
=59	=59	=59
2f	1f	2F
2d	.	2G
[1c	2.e	4A
.	.	4B
.	.	4c
.	4f	4d
=60	=60	=60
2c]	4g	4e
.	4a	4f
2e	1g	2g
1d	.	1a
.	2f#	.
=61	=61	=61
0G	0g	0g
*-	*-	*-
!!!CDT: 1525/^1526/-1594/2/2
!!!OCY: Italia
!!!AGN: Mass (Canonic)
!!!AST: renaissance, vocal
!!!ASW: Motet (unidentified)
!!!PWK: Masses, Book 8
!!!RNB: Cadence finals: C
!!!YOR: Le Opere Complete, v. 24, p. 157
!!!YOO: Rome, Italy: Fratelli Scalera
!!!END: 1992//
!!!EED: John Miller
!!!YEC: Copyright 2000, John Miller
!!!YEN: United States of America
!!!YEM: Rights to all derivative electronic formats reserved.
!!!YEM: Refer to licensing agreement for further details.
!!!YEM: This file must be accompanied by the licensing agreement.
!!!YEM: A copy of the licensing agreement may be found at http://www.music-cog.ohio-state.edu/HumdrumDatabases/Palestrina/license.txt
!!!EMD: converted to Humdrum by Bret Aarden
